X: 42237
T: We Danced All Night
R: jig
M: 6/8
K: Dmajor
|:fbf bfe|dBA BdB|Ade dAF|GAB cde|
fbd' bfe|dBA BdB|Ade dAG|FED B,3:|
|:GAd- {/e} dAG|FAd- {/e} dAF|EAc- {/d} cAE|DEF AFA|GAd- {/e} dAG|
[1 FAd- {/e} dAF|EAc EAc|FAc FAc:|
[2 FAd d z z|EAc FAc|GBd A2 B-|B4 z2||

